static/img/band-icon.svg

<svg width="50" height="50" viewBox="0 0 50 50" fill="none" xmlns="http://www.w3.org/2000/svg">
<g clip-path="url(#clip0_891_1205)">
<path d="M24.9537 50C38.7608 50 49.9537 38.8071 49.9537 25C49.9537 11.1929 38.7608 0 24.9537 0C11.1466 0 -0.0462952 11.1929 -0.0462952 25C-0.0462952 38.8071 11.1466 50 24.9537 50Z" fill="#4520E6"/>
<path fill-rule="evenodd" clip-rule="evenodd" d="M33.7189 30.5182C33.7189 33.0954 31.6618 35.1918 29.1328 35.1918H20.3399L29.478 25.8797C31.8434 26.0632 33.7189 28.0614 33.7189 30.5182ZM19.1765 25.2977V14.5305H29.4202C29.5952 14.5305 29.7679 14.5401 29.9379 14.5591L19.1765 25.2977ZM35.791 19.2868C35.791 17.1153 34.7268 15.1889 33.0943 14.0051L37.5 9.58337L34.8643 9.59845L31.3641 13.1114C30.7163 12.893 30.0231 12.7745 29.3028 12.7745H17.2526V29.9048L31.7605 15.3438C33.0672 16.1675 33.9377 17.6271 33.9377 19.2868C33.9377 21.852 31.8587 23.9387 29.3028 23.9387H28.9191L12.7778 40.1389H15.3984L18.563 36.9629H29.3028C32.8803 36.9629 35.791 34.0416 35.791 30.451C35.791 28.083 34.5211 26.0124 32.6332 24.8726C34.5231 23.733 35.791 21.656 35.791 19.2868Z" fill="white"/>
</g>
<defs>
<clipPath id="clip0_891_1205">
<rect width="50" height="50" fill="white"/>
</clipPath>
</defs>
</svg>

<svg xmlns="http://www.w3.org/2000/svg" width="50" height="50" fill="none"><g clip-path="url(#a)"><path fill="#4520E6" d="M24.954 50c13.807 0 25-11.193 25-25s-11.193-25-25-25-25 11.193-25 25 11.193 25 25 25"/><path fill="#fff" fill-rule="evenodd" d="M33.719 30.518c0 2.577-2.057 4.674-4.586 4.674H20.34l9.138-9.312c2.365.183 4.24 2.181 4.24 4.638m-14.542-5.22V14.53H29.42q.263 0 .518.028zm16.614-6.011a6.52 6.52 0 0 0-2.697-5.282L37.5 9.583l-2.636.015-3.5 3.513a6.4 6.4 0 0 0-2.061-.337h-12.05v17.13l14.508-14.56a4.66 4.66 0 0 1 2.177 3.943c0 2.565-2.08 4.652-4.635 4.652h-.384l-16.141 16.2h2.62l3.165-3.176h10.74c3.577 0 6.488-2.921 6.488-6.512a6.51 6.51 0 0 0-3.158-5.578 6.52 6.52 0 0 0 3.158-5.586" clip-rule="evenodd"/></g><defs><clipPath id="a"><path fill="#fff" d="M0 0h50v50H0z"/></clipPath></defs></svg>
